assets/images/doc-stats-rating.svg

<svg width="56" height="56" viewBox="0 0 56 56" fill="none" xmlns="http://www.w3.org/2000/svg">
<rect width="55.9147" height="55.7796" rx="27.8898" fill="#F3F4F6"/>
<path fill-rule="evenodd" clip-rule="evenodd" d="M27.89 17.8182C27.2758 17.8496 26.6665 18.3306 26.1957 19.2599L24.4086 22.8342C24.1677 23.3285 23.5213 23.8101 22.9763 23.8989L19.7442 24.4312C17.6782 24.7861 17.1966 26.2817 18.6796 27.7647L21.2018 30.287C21.6201 30.7052 21.8609 31.5291 21.7469 32.1375L21.0244 35.2555C20.454 37.7144 21.7722 38.665 23.9396 37.3849L26.9689 35.585C27.2214 35.4324 27.5528 35.3504 27.89 35.3392V17.8182Z" fill="#1C2A3A"/>
<path fill-rule="evenodd" clip-rule="evenodd" d="M27.8901 35.3409C28.2807 35.3279 28.6791 35.4099 28.9716 35.5867L32.0009 37.3866C34.1683 38.6794 35.4865 37.7161 34.9161 35.2572L34.1937 32.1392C34.0542 31.5435 34.2951 30.7196 34.7133 30.3013L37.2356 27.7791C38.7186 26.2834 38.2369 24.7878 36.1709 24.4456L32.9389 23.9132C32.3938 23.8118 31.7474 23.3429 31.5066 22.8486L29.7194 19.2743C29.2142 18.2704 28.5494 17.7862 27.8901 17.8199V35.3409Z" fill="#1C2A3A"/>
</svg>

<svg xmlns="http://www.w3.org/2000/svg" width="56" height="56" fill="none" viewBox="0 0 56 56"><rect width="55.915" height="55.78" fill="#f3f4f6" rx="27.89"/><path fill="#1c2a3a" fill-rule="evenodd" d="M27.89 17.818c-.614.032-1.224.513-1.694 1.442l-1.787 3.574c-.241.494-.888.976-1.433 1.065l-3.232.532c-2.066.355-2.547 1.85-1.064 3.334l2.522 2.522c.418.418.659 1.242.545 1.85l-.723 3.118c-.57 2.46.748 3.41 2.916 2.13l3.029-1.8c.252-.153.584-.235.921-.246z" clip-rule="evenodd"/><path fill="#1c2a3a" fill-rule="evenodd" d="M27.89 35.34c.39-.012.79.07 1.082.247l3.029 1.8c2.167 1.292 3.486.33 2.915-2.13l-.722-3.118c-.14-.596.101-1.42.52-1.838l2.522-2.522c1.483-1.496 1-2.991-1.065-3.333l-3.232-.533c-.545-.101-1.192-.57-1.432-1.064l-1.788-3.575c-.505-1.004-1.17-1.488-1.829-1.454z" clip-rule="evenodd"/></svg>
